X: 44
T:Saxona's Hornpipe. WCa.44
M:C|
Q:160
C:"Wm Calverts Book"
S:Wm. Calvert MS, 1812, Leyburn, Yorks.
R:hornpipe
O:England
A:North Yorkshire
Z:vmp.Chris Partington, May 2003
K:D
AF|D2d2d2cd|ecAcd2de|fefd gfge|afdfe2AF|!
D2d2d2cd|ecAcd2de|fdec dBA^G|A2A2A2::!
fg|afdf AcBA|B2G2G2ga|bgeg BdcB|c2A2A2fg|!
((3agf) ((3agf) gb gb|((3agf) ((3agf) gb gb|\
afge fdec|d2d2d2:||
